!!!SOCIAL_FUNCTION:	songs for success in hunting
!!!PDT:	1956
!!!OTL: No_214_We_Are_Going_to_Hunt.krn
!!!LANG: Non-Tone
!!!LING_GROUP: Muskogean
!!!REG: Florida
**kern
*staff1
=1-
*clefF4
*k[b-]
*M2/4
4c\
4c\
=2
(8A\L
8G\J)
4F\
=3
4G\
4r
=4
4G\
4D\
=5
8F\L
8F\J
4D\
=6
2D\
=7
(8F\L
8D\J)
8.F\L
16F\Jk
=8
2F\
=9
4G\
4r
=10
4F\
4D\
=11
8F\L
8F\J
4D\
=12||
*M3/4
2D\
4r
=13!|:
*M2/4
4c\
4c\
=14
4c\
4c\
=15
8B-\L
8B-\J
4B-\
=16
4c\
4c\
=17
(8B-\L
8A\J)
4F\
=18
4G\
4r
=19
4G\
4D\
=20
8F\L
8F\J
4D\
=21
2D\
=22
(8F\L
8D\J)
8.F\L
16F\Jk
=23
2F\
=24
4G\
4r
=25
4G\
4D\
=26
8F\L
8F\J
4D\
=27
2D\
=28:|!
4D\
8A\L
8F\J
=29
2A\
=30
16AA/LL
16AA/J
8AA/J
8BB-/L
8AA/J
==
*-
